src/assets/gif_tag.svg

<svg xmlns="http://www.w3.org/2000/svg" width="29" height="22" viewBox="0 0 29 22">
  <g fill="none" fill-rule="evenodd">
    <rect width="29" height="22" fill="#202225" fill-opacity=".8" rx="3"/>
    <polygon fill="#FFF" points="13.292 6.111 15.708 6.111 15.708 15.889 13.292 15.889"/>
    <path fill="#FFF" d="M9.66666667,6.11111111 L4.83333333,6.11111111 C3.96333333,6.11111111 3.625,6.51851852 3.625,7.33333333 L3.625,14.6666667 C3.625,15.4814815 3.96333333,15.8888889 4.83333333,15.8888889 L9.66666667,15.8888889 C10.5366667,15.8888889 10.875,15.4814815 10.875,14.6666667 L10.875,9.77777778 L7.25,9.77777778 L7.25,12.2222222 L8.45833333,12.2222222 L8.45833333,13.4444444 L6.04166667,13.4444444 L6.04166667,8.55555556 L10.875,8.55555556 L10.875,7.33333333 C10.875,6.51851852 10.5366667,6.11111111 9.66666667,6.11111111 Z"/>
    <polygon fill="#FFF" points="25.375 8.556 25.375 6.111 18.125 6.111 18.125 15.889 20.542 15.889 20.542 12.222 24.167 12.222 24.167 9.778 20.542 9.778 20.542 8.556"/>
  </g>
</svg>

<?xml version="1.0" encoding="UTF-8"?><svg width="29" height="22" viewBox="0 0 29 22" xmlns="http://www.w3.org/2000/svg"><g fill-rule="evenodd"><rect width="29" height="22" rx="3" fill="#202225" fill-opacity=".8"/><polygon points="13.292 6.111 15.708 6.111 15.708 15.889 13.292 15.889" fill="#FFF"/><path d="m9.6667 6.1111h-4.8333c-0.87 0-1.2083 0.40741-1.2083 1.2222v7.3333c0 0.81481 0.33833 1.2222 1.2083 1.2222h4.8333c0.87 0 1.2083-0.40741 1.2083-1.2222v-4.8889h-3.625v2.4444h1.2083v1.2222h-2.4167v-4.8889h4.8333v-1.2222c0-0.81481-0.33833-1.2222-1.2083-1.2222z" fill="#FFF"/><polygon points="25.375 8.556 25.375 6.111 18.125 6.111 18.125 15.889 20.542 15.889 20.542 12.222 24.167 12.222 24.167 9.778 20.542 9.778 20.542 8.556" fill="#FFF"/></g></svg>
